X: 38814
T: Suile Shuibhne
R: reel
M: 4/4
K: Gdorian
DBAF GEEG|FAEC A,3C|B,2DB, FB,DF|CEEG GccB|
ABBA BAAG|FAEC A,3C|B,2DB, FB,DF|EGFE D4:|
Ddd^c ^cBBA|defg a4|^gaaf =g2ef|feed ^c4|
G3 A BAGB|Adef e4|a3g gffe|edd^c d4:|

